icons/round/hardware/ic_sim_card_24px.svg

<svg xmlns="http://www.w3.org/2000/svg" height="24" viewBox="0 0 24 24" width="24"><path d="M19.99 4c0-1.1-.89-2-1.99-2h-7.17c-.53 0-1.04.21-1.42.59L4.59 7.41C4.21 7.79 4 8.3 4 8.83V20c0 1.1.9 2 2 2h12.01c1.1 0 1.99-.9 1.99-2l-.01-16zM8 19c-.55 0-1-.45-1-1s.45-1 1-1 1 .45 1 1-.45 1-1 1zm8 0c-.55 0-1-.45-1-1s.45-1 1-1 1 .45 1 1-.45 1-1 1zm-8-4c-.55 0-1-.45-1-1v-2c0-.55.45-1 1-1s1 .45 1 1v2c0 .55-.45 1-1 1zm4 4c-.55 0-1-.45-1-1v-2c0-.55.45-1 1-1s1 .45 1 1v2c0 .55-.45 1-1 1zm0-6c-.55 0-1-.45-1-1s.45-1 1-1 1 .45 1 1-.45 1-1 1zm4 2c-.55 0-1-.45-1-1v-2c0-.55.45-1 1-1s1 .45 1 1v2c0 .55-.45 1-1 1z"/></svg>

<svg xmlns="http://www.w3.org/2000/svg" enable-background="new 0 0 24 24" height="24" viewBox="0 0 24 24" width="24"><g><rect fill="none" height="24" width="24" y="0"/></g><g><g><g><path d="M19.99,4c0-1.1-0.89-2-1.99-2h-7.17C10.3,2,9.79,2.21,9.41,2.59L4.59,7.41C4.21,7.79,4,8.3,4,8.83V20c0,1.1,0.9,2,2,2 h12.01c1.1,0,1.99-0.9,1.99-2L19.99,4z M8,19L8,19c-0.55,0-1-0.45-1-1l0,0c0-0.55,0.45-1,1-1l0,0c0.55,0,1,0.45,1,1l0,0 C9,18.55,8.55,19,8,19z M16,19L16,19c-0.55,0-1-0.45-1-1l0,0c0-0.55,0.45-1,1-1l0,0c0.55,0,1,0.45,1,1l0,0 C17,18.55,16.55,19,16,19z M8,15L8,15c-0.55,0-1-0.45-1-1v-2c0-0.55,0.45-1,1-1l0,0c0.55,0,1,0.45,1,1v2C9,14.55,8.55,15,8,15z M12,19L12,19c-0.55,0-1-0.45-1-1v-2c0-0.55,0.45-1,1-1l0,0c0.55,0,1,0.45,1,1v2C13,18.55,12.55,19,12,19z M12,13L12,13 c-0.55,0-1-0.45-1-1l0,0c0-0.55,0.45-1,1-1l0,0c0.55,0,1,0.45,1,1l0,0C13,12.55,12.55,13,12,13z M16,15L16,15c-0.55,0-1-0.45-1-1 v-2c0-0.55,0.45-1,1-1l0,0c0.55,0,1,0.45,1,1v2C17,14.55,16.55,15,16,15z"/></g></g></g></svg>
